material/.icons/material/rv-truck.svg

<svg xmlns="http://www.w3.org/2000/svg" viewBox="0 0 24 24"><path d="M20 8h2V6l-2-2H3a2 2 0 00-2 2v9a2 2 0 002 2h1a3 3 0 003 3 3 3 0 003-3h5a3 3 0 006 0h2v-5M7 18.5a1.5 1.5 0 010-3 1.5 1.5 0 010 3M9 12H3V9h6m5 6h-3V9h3m4 9.5a1.5 1.5 0 111.5-1.5 1.54 1.54 0 01-1.5 1.5M17 12V9.5h2.5l2 2.5z"/></svg>

<?xml version="1.0" encoding="UTF-8"?><!DOCTYPE svg PUBLIC "-//W3C//DTD SVG 1.1//EN" "http://www.w3.org/Graphics/SVG/1.1/DTD/svg11.dtd"><svg xmlns="http://www.w3.org/2000/svg" xmlns:xlink="http://www.w3.org/1999/xlink" version="1.1" id="mdi-rv-truck" width="24" height="24" viewBox="0 0 24 24"><path d="M20 8H22V6L20 4H3A2 2 0 0 0 1 6V15A2 2 0 0 0 3 17H4A3 3 0 0 0 7 20A3 3 0 0 0 10 17H15A3 3 0 0 0 21 17H23V12M7 18.5A1.5 1.5 0 0 1 7 15.5A1.5 1.5 0 0 1 7 18.5M9 12H3V9H9M14 15H11V9H14M18 18.5A1.5 1.5 0 1 1 19.5 17A1.54 1.54 0 0 1 18 18.5M17 12V9.5H19.5L21.5 12Z" /></svg>
